static/assets/images/flags/1x1/tz.svg

<svg height="512" width="512" xmlns="http://www.w3.org/2000/svg" xmlns:xlink="http://www.w3.org/1999/xlink"><clipPath id="a"><path d="m102.9 0h496v496h-495.9z"/></clipPath><g clip-path="url(#a)" transform="matrix(1.0321 0 0 1.0321 -106.2 0)"><g fill-rule="evenodd" stroke-width="1pt"><path d="m0 0h744.1v496h-744.1z" fill="#09f"/><path d="m0 0h744.1l-744.1 496z" fill="#090"/><path d="m0 496h165.4l578.6-392.6v-103.4h-165.3l-578.7 392.7v103.4z"/><path d="m0 378 567-378h56l-623 415.3v-37.2zm121.1 118 623-415.3v37.3l-567.1 378z" fill="#ff0"/></g></g></svg>

<svg xmlns="http://www.w3.org/2000/svg" id="flag-icon-css-tz" width="512" height="512">
  <defs>
    <clipPath id="a">
      <path fill-opacity=".7" d="M102.9 0h496v496H103z"/>
    </clipPath>
  </defs>
  <g clip-path="url(#a)" transform="translate(-106.2) scale(1.0321)">
    <g fill-rule="evenodd" stroke-width="1pt">
      <path fill="#09f" d="M0 0h744.1v496H0z"/>
      <path fill="#090" d="M0 0h744.1L0 496V0z"/>
      <path d="M0 496h165.4L744 103.4V0H578.7L0 392.7v103.4z"/>
      <path fill="#ff0" d="M0 378L567 0h56L0 415.3v-37.2zm121.1 118l623-415.3V118L177 496h-55.9z"/>
    </g>
  </g>
</svg>
